X:84
T: Graf und Nonne (Die Nonne)
N: Q0155U
O: Mitteleuropa, Schweiz
N: Anhaengsel an der dritten Zeile. Verzierungen (Vorschlaege)
R: Ballade, Standesunterschied, vergebliche Werbung, Liebe, Klage
M: 2/4
L: 1/16
K: G
GB | d2dgdBcA | B4A2
A2 | B2Bdc2ce | d4z2
(3def | g2g2gfed | e4d4 | c4B2
d2 | e2dcB2A2 | G4z2

@@@ Tune index: 1794
